!!!OTL: "Jaegerlied" KLOAN BIN I
!!!ARE: Europa, Mitteleuropa, Steiermark
!!!SCT: Z1284
!!!YEM: Copyright 1995, estate of Helmut Schaffrath.
**kern
*ICvox
*Ivox
*M3/4
*k[f#c#g#]
*A:
{8.e
16g#
=1
4a
4a
4a
=2
4.cc#
8b}
{4a
=3
4.ee
8dd
8dd
8g#
=4
4a
4r}
{8.e
16g#
=5
4a
4a
4a
=6
4.cc#
8b}
{4a
=7
4.ee
8dd
8dd
8g#
=8
4a
4r}
{4b
=9
4b
4cc#
4b
=10
4ee
4.b}
{8b
=11
4b
4cc#
4b
=12
4gg#
4r}
{8.b
16cc#
=13
4b
8ee
8b
8ee
8gg#
=14
4.bb
8gg#}
{8ee
8gg#
=15
4.bb
8aa
4ff#
=16
4gg#
4r}
{8.e
16g#
=17
4a
4a
4a
=18
4.cc#
8b}
{4a
=19
4.ee
8dd
8dd
8g#
=20
4a
4r}
{8.b
16cc#
=21
4b
8ee
8b
8ee
8gg#
=22
4.bb
8ee}
{8gg#
8bb
=23
4.dd#
8cc#
12bb
12aa
12ff#
=24
2ee}
{8.e
16g#
=25
4a
4a
4a
=26
4.cc#
8b}
{4a
=27
4.ee
8dd
8dd
8g#
=28
4a
8r}
{8e
8f#
8g#
=29
8a
8ee
8ee
8a
8ee
8a
=30
8g#
8ee
8dd
8g#
4ff#}
=31
{8g#
8ee
8ee
8g#
8ee
8g#
=32
8a
8ee
8cc#
8a
4aa}
=33
{8a
8b
8cc#
8dd
8ee
8aa
=34
8aa
8ff#
4.ff#}
{8dd
=35
4ee
8dd
8cc#
8dd
8g#
=36
4a
4r}
==
!!!AGN: Jaeger - Lied
!!!ONB: ESAC (Essen Associative Code) Database: ZUCCAL
!!!AMT: simple triple
!!!AIN: vox
!!!EED: Helmut Schaffrath
!!!EEV: 1.0
*-
